X: 27056
T: Miss Ida McVarish Of Morar
R: jig
M: 6/8
K: Amajor
ABA Ace|d2e faf|eaa aec|BBB dcB|
ABA cea|daa aed|cde eac|1 BBB ABA:|2 BBB Ace||
|:d2e faf|eaa aec|BBB dcB|AcB Ace|
d2e faf|eaa aed|cde eac|1 BBB Ace:|2 BBB Aaf||
|:eaa aec|BBB dcB|ABA cea|daa aef|
eaa aec|BBB dcB|cde eac|1 BBB Aaf:|2 BBB Adc||
|:BBB dcB|ABA Ace|d2e faf|eaa aec|
BBB dcB|ABA cea|daa aec|1 BBB Adc:|2 BBB A3||

